polaris-icons/icons/new-icons/SocialAdMajor.svg

<svg width="20" height="20" viewBox="0 0 20 20" fill="none" xmlns="http://www.w3.org/2000/svg">
<path d="M12.5 3C12.9142 3 13.25 3.33579 13.25 3.75V5C13.25 5.41421 12.9142 5.75 12.5 5.75C12.0858 5.75 11.75 5.41421 11.75 5V3.75C11.75 3.33579 12.0858 3 12.5 3Z" fill="#4A4A4A"/>
<path d="M16.0303 5.03033C16.3232 4.73744 16.3232 4.26256 16.0303 3.96967C15.7374 3.67678 15.2626 3.67678 14.9697 3.96967L13.9697 4.96967C13.6768 5.26256 13.6768 5.73744 13.9697 6.03033C14.2626 6.32322 14.7374 6.32322 15.0303 6.03033L16.0303 5.03033Z" fill="#4A4A4A"/>
<path d="M5.5 7C5.5 6.30964 6.05964 5.75 6.75 5.75H10C10.4142 5.75 10.75 5.41421 10.75 5C10.75 4.58579 10.4142 4.25 10 4.25H6.75C5.23122 4.25 4 5.48122 4 7V14.25C4 15.7688 5.23122 17 6.75 17H13.25C14.7688 17 16 15.7688 16 14.25V10.625C16 10.2108 15.6642 9.875 15.25 9.875C14.8358 9.875 14.5 10.2108 14.5 10.625V14.25C14.5 14.9404 13.9404 15.5 13.25 15.5H6.75C6.05964 15.5 5.5 14.9404 5.5 14.25V7Z" fill="#4A4A4A"/>
<path d="M7.25 12.5C6.83579 12.5 6.5 12.8358 6.5 13.25C6.5 13.6642 6.83579 14 7.25 14H12.75C13.1642 14 13.5 13.6642 13.5 13.25C13.5 12.8358 13.1642 12.5 12.75 12.5H7.25Z" fill="#4A4A4A"/>
<path fill-rule="evenodd" clip-rule="evenodd" d="M6.25 7.25C6.25 6.83579 6.58579 6.5 7 6.5H13C13.4142 6.5 13.75 6.83579 13.75 7.25V10.25C13.75 10.6642 13.4142 11 13 11H7C6.58579 11 6.25 10.6642 6.25 10.25V7.25ZM7.75 8V9.5H12.25V8H7.75Z" fill="#4A4A4A"/>
<path d="M16.5 8.25C16.9142 8.25 17.25 7.91421 17.25 7.5C17.25 7.08579 16.9142 6.75 16.5 6.75H15.25C14.8358 6.75 14.5 7.08579 14.5 7.5C14.5 7.91421 14.8358 8.25 15.25 8.25H16.5Z" fill="#4A4A4A"/>
</svg>

<svg viewBox="0 0 20 20" xmlns="http://www.w3.org/2000/svg"><path d="M12.5 3a.75.75 0 0 1 .75.75v1.25a.75.75 0 0 1-1.5 0v-1.25a.75.75 0 0 1 .75-.75Z" fill="#5C5F62"/><path d="M16.03 5.03a.75.75 0 0 0-1.06-1.06l-1 1a.75.75 0 0 0 1.06 1.06l1-1Z" fill="#5C5F62"/><path d="M5.5 7c0-.69.56-1.25 1.25-1.25h3.25a.75.75 0 0 0 0-1.5h-3.25a2.75 2.75 0 0 0-2.75 2.75v7.25a2.75 2.75 0 0 0 2.75 2.75h6.5a2.75 2.75 0 0 0 2.75-2.75v-3.625a.75.75 0 0 0-1.5 0v3.625c0 .69-.56 1.25-1.25 1.25h-6.5c-.69 0-1.25-.56-1.25-1.25v-7.25Z" fill="#5C5F62"/><path d="M7.25 12.5a.75.75 0 0 0 0 1.5h5.5a.75.75 0 0 0 0-1.5h-5.5Z" fill="#5C5F62"/><path fill-rule="evenodd" d="M6.25 7.25a.75.75 0 0 1 .75-.75h6a.75.75 0 0 1 .75.75v3a.75.75 0 0 1-.75.75h-6a.75.75 0 0 1-.75-.75v-3Zm1.5.75v1.5h4.5v-1.5h-4.5Z" fill="#5C5F62"/><path d="M16.5 8.25a.75.75 0 0 0 0-1.5h-1.25a.75.75 0 0 0 0 1.5h1.25Z" fill="#5C5F62"/></svg>
